X:1
T:Pusekatten
T:Pusekatten
T:#2 fra Fredrikke Lindboe, Smaabörnenes Melodier 4de Hefte
%%score { ( 1 3 ) | 2 }
L:1/8
Q:1/4=116
M:2/4
K:D
V:1 treble nm="Piano" snm="Pno."
V:3 treble 
V:2 bass 
V:1
"^Livligt"!f! [FA]4 | [CG]3 [CG] | [DF][DF] [A,E][A,D] | [CE]2 A,2 | z2 A,2 | [A,D]3 [A,D] | %6
w: Pus-|kat- ten|lig- ger un- der|ov- nen,|og|kla- ger|
 [B,E]2 [B,DE]2 | !fermata![CE]4 |[Q:1/4=100]"^Langsommere"!p! D2 DF | [B,E]2 [A,CE]2 | %10
w: al sin|nöd.|Hun har saa|ondt i|
 [A,D]2 [A,D]F | [B,E]2 [CE]2 | [DF]2 [A,D]2 |[Q:1/4=71]"^Langsomt" [B,E]2 [CF][CE] | %14
w: ho'- det _|sit, hun|tror, det|blir hen- des|
 !fermata![A,D]4 |[Q:1/4=116]"^tempo 1"!f! .[GB].[GB] .[FA].[FA] | .[EG]2 .[DF].[CE] | %17
w: död.|Glæ- der e- der|al- le smaa-|
 .[DF]2 .[EG]2 | !>![FA]4 | .[FA].[FA] .[EG].[EG] | .[DF]2 .E.D | .[B,G]2 .[DA]2 | !>![GB]4 | %23
w: mys- ser-|ne,|glæ- der e- der|al- le smaa-|mys- ser-|ne,|
!f! [EA]2 .[GA].[GB] | .[FA]2 .[FA]2 | .[EA]2 .[GA].[GB] | .[FA]2 .[FA]2 | .[GB]2 .[EGB]2 | %28
w: nu kan I|gaa i|spis- kam- me-|ret, og|spi- se|
 [EGc]2 [Ac]2 | !fermata![Fd]3!p![Q:1/4=68]"^Ganske langsomt" d | A3 A | F2 F2 | D2 D2 | %33
w: smör og|bröd. Thi|nu er|pu- se-|kat- ten|
 !fermata![A,D]4 |] %34
w: död!|
V:2
 [D,A,]4 | A,3 A, | D,D, F,F, | A,2 A,,2 | z2 G,2 | F,3 F, | G,2 G,2 | !fermata!A,4 | %8
 [D,F,]2 F,A, | G,2 G,2 | F,2 F,A, | G,2 A,2 | [D,A,]2 [D,F,]2 | [A,,G,]2 [A,,G,][A,,G,] | %14
 !fermata![D,F,]4 | .G,,2 .D,2 | .G,2 .D,2 | .G,,2 .D,2 | .A,2 .D,2 | .G,,2 .D,2 | .A,2 .D,2 | %21
 .G,,2 .D,2 | .G,2 .D,2 | [C,A,]2 .[C,A,].[C,A,] | .[D,A,]2 .F,2 | .[A,C]2 .C.C | .D2 .D,2 | %27
 .G,2 .E,2 | .A,2 .A,,2 | !fermata![D,A,]3 D | A,3 A, | F,2 F,2 | D,2 D,2 | !fermata![D,F,]4 |] %34
V:3
 x4 | x4 | x4 | x4 | x4 | x4 | x4 | x4 | x4 | x4 | x4 | x4 | x4 | x4 | x4 | x4 | x4 | x4 | x4 | %19
 x4 | x4 | x4 | x4 | x4 | x4 | x4 | x4 | x4 | x2 (EG) | x4 | x4 | x4 | x4 | x4 |] %34

